app/images/icons/link.svg

<svg fill="none" height="14" viewBox="0 0 13 14" width="13" xmlns="http://www.w3.org/2000/svg"><g stroke="#21a8dd" stroke-linecap="round" stroke-linejoin="round"><path d="m4 9.62451 5.25-5.25"/><path d="m4.49256 7.01054c-.63609-.03665-1.25762.19981-1.70849.65l-1.125 1.125c-.56841.56841-.790404 1.39686-.58235 2.17336.20805.7765.81454 1.3829 1.591 1.591.77646.208 1.60494-.0139 2.17334-.5824l1.125-1.125c.4502-.4508.68665-1.07236.65001-1.70846"/><path d="m8.75762 6.98814c.63609.03658 1.25758-.19987 1.70848-.65l1.125-1.125c.5684-.56841.7904-1.39689.5824-2.17335-.2081-.77646-.8146-1.38295-1.591-1.591-.7765-.20805-1.60497.01394-2.17338.58235l-1.125 1.125c-.44911.45141-.68461 1.0728-.6475 1.7085"/></g></svg>

<svg width="13" height="14" viewBox="0 0 13 14" fill="none" xmlns="http://www.w3.org/2000/svg">
<path d="M4 9.62451L9.25 4.37451" stroke="#21A8DD" stroke-linecap="round" stroke-linejoin="round"/>
<path d="M4.49256 7.01054C3.85647 6.97389 3.23494 7.21035 2.78407 7.66054L1.65907 8.78554C1.09066 9.35395 0.868666 10.1824 1.07672 10.9589C1.28477 11.7354 1.89126 12.3418 2.66772 12.5499C3.44418 12.7579 4.27266 12.536 4.84106 11.9675L5.96606 10.8425C6.41626 10.3917 6.65271 9.77014 6.61607 9.13404" stroke="#21A8DD" stroke-linecap="round" stroke-linejoin="round"/>
<path d="M8.75762 6.98814C9.39371 7.02472 10.0152 6.78827 10.4661 6.33814L11.5911 5.21314C12.1595 4.64473 12.3815 3.81625 12.1735 3.03979C11.9654 2.26333 11.3589 1.65684 10.5825 1.44879C9.806 1.24074 8.97753 1.46273 8.40912 2.03114L7.28412 3.15614C6.83501 3.60755 6.59951 4.22894 6.63662 4.86464" stroke="#21A8DD" stroke-linecap="round" stroke-linejoin="round"/>
</svg>
